!!!COM: Bach, Johann Sebastian
!!!OPR: Joh. Seb. Bachs vierstimmige Choralges‰nge
!!!XEN: Four-part Chorales
!!!OTL: 136. Nun lob', mein' Seel', den Herren
!!!SCT: BWV 389
!!!SCA: Thematisch-systematisches Verzeichnis der musikalischen Werke Johann Sebastian Bach: Bach-Werke-Verzeichnis (Schmieder)
!!!YOR: Bach Gesellschaft Edition xxxix
!!!ENC: Steven Rasmussen
!!!CDT: 1685/3//-1750/7/28/
!!!OCY: Deutschland
!!!YEC: Copyright (c) 1994, 2000 Center for Computer Assisted Research in the Humanities
!!!YEM: Rights to all derivative editions reserved
!!!YEN: United States of America
**kern	**silbe	**kern	**kern	**kern
*I:[SOPRANO]	*I:[SOPRANO]	*I:[ALTO]	*I:[TENORE]	*I:[BASSO]
*>[A,A,B]	*	*>[A,A,B]	*>[A,A,B]	*>[A,A,B]
*>A	*	*>A	*>A	*>A
*clefG2	*	*clefG2	*clefGv2	*clefF4
*k[]	*	*k[]	*k[]	*k[]
*C:	*	*C:	*C:	*C:
*M4/4	*	*M4/4	*M4/4	*M4/4
4cc	Nunsein'	4g	4e	4c
=1	=1	=1	=1	=1
4cc	lob',Wohl-	4a	4e	4A
4b	mein'-tat	4g	8eL	4E
.	.	.	8dJ	.
4a	Seel',tut	8gL	4c	4F
.	.	8fJ	.	.
4g	dender	8eL	4c	8CL
.	.	8fJ	.	8DJ
=2	=2	=2	=2	=2
4cc	Her-meh-	4g	4.c	4E
4dd	.	8aL	.	8FL
.	.	8gJ	8B	8GJ
4ee;	-ren,-ren,	4g;	4c;	4C;
4ee	wasver-	4g	8cL	4C
.	.	.	8dJ	.
=3	=3	=3	=3	=3
8eeL	in-giss	8gL	8eL	4c
8ddJ	.	8aJ	8fJ	.
4ee	mires	4b	8eL	4G#
.	.	.	8dJ	.
4ee	istnicht,	4.a	4.c	8AL
.	.	.	.	8GnJ
4dd	deno	.	.	8FL
.	.	8g	8B	8GJ
=4	=4	=4	=4	=4
8ccL	Na-Her-	8gL	4c	8EL
8ddJ	.	8aJ	.	8FJ
4ddT	-men-ze	8gL	4B	4G
.	.	8fJ	.	.
4cc;	sein,mein,	4e;	4G;	4C;
=:|!	=:|!	=:|!	=:|!	=:|!
*>B	*	*>B	*>B	*>B
4cc	hat	4e	4G	4C
=5	=5	=5	=5	=5
8ccL	dir	4f	4A	4F
8ddJ	.	.	.	.
4ee	dein'	4cc	8GL	8EL
.	.	.	8AJ	8FJ
4dd	S√ºnd'	8gL	4B	4G
.	.	8fJ	.	.
4ee	ver-	4e	4B	4G#
=6	=6	=6	=6	=6
4cc	-ge-	2e	8B	4A
.	.	.	4A	.
4b	.	.	.	4E
.	.	.	8G#	.
4a;	-ben	4e;	4c;	4AA;
4a	und	4e	8cL	8AL
.	.	.	8BJ	8GJ
=7	=7	=7	=7	=7
8ddL	heilt	4d	4A	4F#
8ccJ	.	.	.	.
4b	dein'	4d	4G	8GL
.	.	.	.	8F#J
8ccL	Schwach-	8gL	4G	8EL
8bJ	.	8eJ	.	8CJ
4a	-heit	4f#	8dL	4D
.	.	.	8cJ	.
=8	=8	=8	=8	=8
4g;	gross,	4d;	4B;	4GG;
4g	er-	4d	8BL	8GL
.	.	.	8AJ	8FJ
4cc	-rett'	8gL	4G	4E
.	.	8fJ	.	.
4cc	dein	4e	4c	8AL
.	.	.	.	8GJ
=9	=9	=9	=9	=9
4dd	ar-	8aL	4c	8FL
.	.	8fJ	.	8DJ
4dd	-mes	4g	4B	4G
8eeL	Le-	8gL	4c	4.C
8ddJ	.	8fJ	.	.
4ee	.	4g	4B-	.
.	.	.	.	16DLL
.	.	.	.	16EJJ
=10	=10	=10	=10	=10
4cc;	-ben,	4f;	4A;	4F;
4cc	nimmt	4g	4c	4E
4ff	dich	8fL	8dL	4D
.	.	8gJ	8eJ	.
4ff	in	4a	4f	4d
=11	=11	=11	=11	=11
8eeL	sei-	4b-	4g	8GL
8ddJ	.	.	.	8B-J
4ee	-nen	4e	4c#	4A
4dd;	Schoss,?	4f;	4A;	4D;
4dd	mit	4g	4B	4G
=12	=12	=12	=12	=12
4ee	rei-	4g	4c	8cL
.	.	.	.	8BJ
4ee	-chem	4a	4c	8AL
.	.	.	.	8GJ
4ff	Trost	4a	4d	8FL
.	.	.	.	8EJ
4ff	be-	4b-	4d	4D
=13	=13	=13	=13	=13
8ggL	-sch√ºt-	4b-	8eL	4C
16ffL	.	.	8d	.
16eeJ	.	.	.	.
8ff	.	8aL	8c	8DL
8ggJ	.	8gJ	8B-J	8EJ
4cc;	-tet,	4f;	4A;	4F;
4ee	ver-	4g	8cL	4c
.	.	.	8BnJ	.
=14	=14	=14	=14	=14
8ddL	-j√ºngt	4a	4A	4F#
8ccJ	.	.	.	.
4b	dem	4g	4d	4G
8ccL	Ad-	8gL	4G	8EL
8bJ	.	8eJ	.	8CJ
4a	-ler	4f#	8dL	4D
.	.	.	8cJ	.
=15	=15	=15	=15	=15
4g;	gleich,	4d;	4B;	4GG;
4g	der	4d	4B	4GG
4cc	K√∂n'g	4a	8EL	4AA
.	.	.	8F#J	.
4b	schafft	8dL	4G	8BBL
.	.	8eJ	.	8CJ
=16	=16	=16	=16	=16
4a	recht,	4f	4d	4D
4g	be-	4g	8dL	4E
.	.	.	8cJ	.
4dd	-h√º-	4.a	8cL	4F
.	.	.	8BJ	.
4ee	.	.	4c	4F#
.	.	16bLL	.	.
.	.	16ccJJ	.	.
=17	=17	=17	=17	=17
4dd;	-tet,	4g;	4B;	4G;
4ee	die	4b	8eL	4G#
.	.	.	8dJ	.
4ff	leid'n	4a	8cL	8AL
.	.	.	8dJ	8BJ
4ee	in	8gL	8eL	4c
.	.	8aJ	8fJ	.
=18	=18	=18	=18	=18
4dd	sei-	(4b	8gL	8FL
.	.	.	8f	8GJ
8ccL	.	2cc)	8e	4A
8ddJ	.	.	8fJ	.
4ee	.	.	4.g	8GL
.	.	.	.	8FJ
4dd	-nem	4b	.	4G
.	.	.	8f	.
=19	=19	=19	=19	=19
2.cc;	Reich.	2.g;	2.e;	2.C;
==|!	==|!	==|!	==|!	==|!
!!!RNB1: *) "Schoss" spelled "Schooss" in BG.
*-	*-	*-	*-	*-
!!!RWG: Key is interpreted using the Humdrum key tool.
!!!END: 1994/07/19
!!!EMD: Converted from MuseData to Humdrum Dec 19, 2000, by Andreas Kornstaedt using muse2kern.
!!!EED: Craig Stuart Sapp
!!!EEV: 2024/03/31
!!!ONB: Some non-unicode characters
